img/svg/at24-5.svg

<svg width="24" height="24" viewBox="0 0 24 24" fill="none" xmlns="http://www.w3.org/2000/svg">
<path d="M16.875 6.75H1.125C0.8125 6.75 0.546875 6.85937 0.328125 7.07812C0.109375 7.29688 0 7.5625 0 7.875V11.625C0 11.9375 0.109375 12.2031 0.328125 12.4219C0.546875 12.6406 0.8125 12.75 1.125 12.75H1.5C1.5 13.9688 1.78125 15.125 2.34375 16.2188C2.90625 17.2812 3.67188 18.1562 4.64062 18.8438C5.60938 19.5312 6.6875 19.9688 7.875 20.1562V24H10.125V20.1562C11.3125 19.9688 12.3906 19.5312 13.3594 18.8438C14.3281 18.1562 15.0938 17.2812 15.6562 16.2188C16.2188 15.125 16.5 13.9688 16.5 12.75H16.875C17.1875 12.75 17.4531 12.6406 17.6719 12.4219C17.8906 12.2031 18 11.9375 18 11.625V7.875C18 7.5625 17.8906 7.29688 17.6719 7.07812C17.4531 6.85937 17.1875 6.75 16.875 6.75ZM15.75 10.5H14.25V12.75C14.25 13.6875 14.0156 14.5625 13.5469 15.375C13.0781 16.1875 12.4375 16.8281 11.625 17.2969C10.8125 17.7656 9.9375 18 9 18C8.0625 18 7.1875 17.7656 6.375 17.2969C5.5625 16.8281 4.92188 16.1875 4.45312 15.375C3.98438 14.5625 3.75 13.6875 3.75 12.75V10.5H2.25V9H15.75V10.5ZM12.375 6V1.125C12.375 0.8125 12.4844 0.546875 12.7031 0.328125C12.9219 0.109375 13.1875 0 13.5 0C13.8125 0 14.0781 0.109375 14.2969 0.328125C14.5156 0.546875 14.625 0.8125 14.625 1.125V6H12.375ZM3.375 6V1.125C3.375 0.8125 3.48438 0.546875 3.70312 0.328125C3.92188 0.109375 4.1875 0 4.5 0C4.8125 0 5.07812 0.109375 5.29688 0.328125C5.51562 0.546875 5.625 0.8125 5.625 1.125V6H3.375Z" fill="#FFD500"/>
</svg>

<svg width="24" height="24" viewBox="0 0 24 24" fill="none" xmlns="http://www.w3.org/2000/svg"><path d="M16.875 6.75H1.125c-.313 0-.578.11-.797.328A1.085 1.085 0 000 7.875v3.75c0 .313.11.578.328.797.219.219.484.328.797.328H1.5c0 1.219.281 2.375.844 3.469a7.443 7.443 0 002.297 2.625 7.546 7.546 0 003.234 1.312V24h2.25v-3.844a7.547 7.547 0 003.234-1.312 7.442 7.442 0 002.297-2.625 7.48 7.48 0 00.844-3.469h.375c.313 0 .578-.11.797-.328.219-.219.328-.485.328-.797v-3.75c0-.313-.11-.578-.328-.797a1.085 1.085 0 00-.797-.328zM15.75 10.5h-1.5v2.25a5.16 5.16 0 01-.703 2.625 5.157 5.157 0 01-1.922 1.922A5.166 5.166 0 019 18a5.166 5.166 0 01-2.625-.703 5.157 5.157 0 01-1.922-1.922 5.165 5.165 0 01-.703-2.625V10.5h-1.5V9h13.5v1.5zM12.375 6V1.125c0-.313.11-.578.328-.797A1.09 1.09 0 0113.5 0c.313 0 .578.11.797.328.219.219.328.484.328.797V6h-2.25zm-9 0V1.125c0-.313.11-.578.328-.797A1.09 1.09 0 014.5 0c.313 0 .578.11.797.328.219.219.328.484.328.797V6h-2.25z" fill="#FFD500"/></svg>
